assets/svgs/misc-grey/MiscGrey3.svg

<svg width="36" height="46" viewBox="0 0 36 46" fill="none" xmlns="http://www.w3.org/2000/svg">
<path fill-rule="evenodd" clip-rule="evenodd" d="M16.11 3.38599H13.74C12.91 3.38599 12.24 2.71499 12.24 1.88599C12.24 1.05799 12.91 0.385986 13.74 0.385986H21.49C22.32 0.385986 22.99 1.05799 22.99 1.88599C22.99 2.71499 22.32 3.38599 21.49 3.38599H19.11V6.71999C19.11 7.54799 18.44 8.21999 17.61 8.21999C16.79 8.21999 16.11 7.54799 16.11 6.71999V3.38599ZM19.43 16.907V24.267C20.57 24.826 21.36 25.989 21.36 27.345C21.36 29.24 19.82 30.782 17.93 30.782C16.03 30.782 14.49 29.24 14.49 27.345C14.49 25.989 15.28 24.826 16.43 24.267V16.907C16.43 16.079 17.1 15.407 17.93 15.407C18.75 15.407 19.43 16.079 19.43 16.907ZM17.93 42.22C9.72005 42.22 3.05005 35.547 3.05005 27.345C3.05005 19.143 9.72005 12.47 17.93 12.47C26.13 12.47 32.8 19.143 32.8 27.345C32.8 35.547 26.13 42.22 17.93 42.22ZM31.1 15.306L33.37 13.038C33.9501 12.452 33.9501 11.502 33.37 10.917C32.78 10.331 31.83 10.331 31.25 10.917L28.9 13.265C25.87 10.896 22.06 9.46999 17.93 9.46999C8.07005 9.46999 0.0500488 17.488 0.0500488 27.345C0.0500488 37.201 8.07005 45.22 17.93 45.22C27.78 45.22 35.8 37.201 35.8 27.345C35.8 22.705 34.01 18.486 31.1 15.306Z" fill="#1A1919"/>
</svg>

<svg xmlns="http://www.w3.org/2000/svg" fill="none" viewBox="0 0 36 46"><path fill="#1A1919" fill-rule="evenodd" d="M16.11 3.386h-2.37a1.5 1.5 0 110-3h7.75a1.5 1.5 0 110 3h-2.38V6.72a1.5 1.5 0 11-3 0V3.386zm3.32 13.521v7.36a3.427 3.427 0 011.93 3.078 3.438 3.438 0 01-3.43 3.437 3.44 3.44 0 01-3.44-3.437c0-1.356.79-2.519 1.94-3.078v-7.36a1.5 1.5 0 113 0zm-1.5 25.313c-8.21 0-14.88-6.673-14.88-14.875S9.72 12.47 17.93 12.47c8.2 0 14.87 6.673 14.87 14.875S26.13 42.22 17.93 42.22zM31.1 15.306l2.27-2.268a1.51 1.51 0 000-2.121 1.498 1.498 0 00-2.12 0l-2.35 2.348A17.768 17.768 0 0017.93 9.47C8.07 9.47.05 17.488.05 27.345c0 9.856 8.02 17.875 17.88 17.875 9.85 0 17.87-8.019 17.87-17.875 0-4.64-1.79-8.859-4.7-12.039z" clip-rule="evenodd"/></svg>
